X:1
T:O Jesu Christe
T:Jacquet de Mantua
T:O Jesu Christe
C:Jacquet de Mantua
%%score [ 1 2 3 4 ]
L:1/8
Q:1/2=92
M:4/2
K:D
V:1 treble nm="Soprano" snm="S."
V:2 treble nm="Alto" snm="A."
V:3 treble-8 transpose=-12 nm="Tenor" snm="T."
V:4 bass nm="Bass" snm="B."
V:1
"^O Jesus Christ, have mercy on me,When I languish with grief.Lord, thou art my hope.Unto thee have I cried: have mercy on me" (F8 A8) | %1
w: O _|
 A16 | B16 | A16 | A16 | A12 A4 | A8 A8 | G16 | F16 | z4 d4 d4 d4 | (c4 A4) B8- | B4 B4 A8- | %12
w: Je-|su|Chri-|ste,|mi- se-|re- re|me-|i,|quam do- lo-|re _ lan-|* gue- o,|
 A8 z8 | z4 d4 d4 d4 | (c4 A4) B8- | B4 B4 A8- | A8 z4 G4 | G4 G4 (F4 D4) | F12 F4 | E16 | z16 | %21
w: _|quam do- lo-|re _ lan-|* gue- o,|_ quam|do- lo- re _|lan- gue-|o,||
 A12 A4 | A8 z8 | e12 e4 | e8 c8- | c8 (B4 e4) | c12 d4- | (d2 c2 B2 A2 B8) | A16 | F16 | F8 F8 | %31
w: Do- mi-|ne,|Do- mi-|ne, tu|_ es _|spes me-||a.|Cla-|ma- vi,|
 z8 B8- | B8 B8 | B8 B8- | B16 | A16 ||[M:3/2] F4 F4 F4 | E8 z4 | G4 G4 G4 | F4 B8 | (A4 G6 F2) | %41
w: cla-|* ma-|vi ad|_|te.|Mi- se- re-|re,|mi- se- re-|re me-|i, _ _|
 (F6 ED E4) | F12- | F12- | F12 |] %45
w: me- * * *|i.|_||
V:2
 (C8 F8) | F16 | G16 | E16 | F16 | E12 E4 | E8 F8 | E16 | D4 D8 (C2 B,2) | (D6 E2) F8- | %10
w: O _|Je-|su|Chri-|ste,|mi- se-|re- re|me-|i, mi- se- *|re- * re,|
 F8 (E4 D4-) | D4 (C2 B,2) F8 | F8 z4 G4 | G4 G4 (F4 D4) | E12 E4 | D4 (C2 B,2) F8- | F4 D4 E8- | %17
w: _ mi- *|* se- * re-|re, quam|do- lo- re _|lan- gue-|o, do- * lo-|* re lan-|
 E8 D8- | D16 | C16 | D12 D4 | D8 z8 | A12 A4 | A16- | A16 | A8 G8 | F16 | (D12 E4) | F16 | C16 | %30
w: * gue-||o.|Do- mi-|ne,|Do- mi-|ne,|_|tu es|spes|me- *|a.|Cla-|
 C8 D8 | z8 F8- | F8 F8 | G8 F8- | (F4 G2 F2 G8) | F16 ||[M:3/2] D4 D4 D4 | C8 z4 | E4 E4 E4 | %39
w: ma- vi,|cla-|* ma-|vi ad|_ _ _ _|te.|Mi- se- re-|re,|mi- se- re-|
 D4 F8- | F4 D8- | D4 B,6 C2 | D4 (A,4 B,4 | C4) D8 | C12 |] %45
w: re me-|* i,|_ mi- se-|re- re _|_ me-|i.|
V:3
 (A8 c8 | d8) d8- | d8 (B4 d4-) | d4 (c2 B2 c8) | d16 | c12 c4 | c8 d8 | B16 | (B12 A2 G2 | F16-) | %10
w: O _|_ Je-|* su _|_ Chri- * *|ste,|mi- se-|re- re|me-|i, _ _|_|
 F8 z8 | z4 d4 d4 d4 | (c4 A4) B8- | B8 B8 | A8 z8 | z4 d4 d4 d4 | (c4 A4) B8- | B8 B8 | A16- | %19
w: |quam do- lo-|re _ lan-|* gue-|o,|quam do- lo-|re _ lan-|* gue-|o,|
 A16 | z16 | z8 A8- | A4 A4 A8 | z8 e8- | e4 e4 e8 | e8 e8 | A16 | B16 | c16 | A16 | A8 A8 | %31
w: _||Do-|* mi- ne,|Do-|* mi- ne,|tu es|spes|me-|a.|Cla-|ma- vi,|
 z8 d8- | d8 d8 | B8 d8- | d16 | d16 ||[M:3/2] A4 A4 A4 | A8 z4 | B4 B4 B4 | B4 (d8 | c4) B8 | %41
w: cla-|* ma-|vi ad|_|te.|Mi- se- re-|re,|mi- se- re-|re me-|* i|
 A4 G8 | F4 F8 | (F4 B8) | ^A12 |] %45
w: mi- se-|re- re|me- *|i.|
V:4
 F,16 | D,16 | G,16 | A,16 | D,16 | A,12 A,4 | A,8 D,8 | E,16 | B,,16- | B,,16 | z8 z4 G,4 | %11
w: O|Je-|su|Chri-|ste,|mi- se-|re- re|me-|i,|_|quam|
 G,4 G,4 (F,4 D,4) | F,4 F,4 E,8 | z16 | z8 z4 G,4 | G,4 G,4 (F,4 D,4) | F,4 F,4 E,8- | %17
w: do- lo- re _|lan- gue- o,||quam|do- lo- re _|lan- gue- o,|
 E,8 (B,,6 C,2) | D,16 | A,,16 | z8 D,8- | D,4 D,4 D,8 | z8 A,8- | A,4 A,4 A,8 | A,16- | A,8 E,8 | %26
w: _ lan- *|gue-|o,|Do-|* mi- ne,|Do-|* mi- ne,|tu|_ es|
 F,16 | G,16 | F,16 | F,16 | F,8 D,8 | z8 B,8- | B,8 B,8 | E,8 B,8- | (B,4 A,4 G,8) | D,16 || %36
w: spes|me-|a.|Cla-|ma- vi,|cla-|* ma-|vi ad|_ _ _|te.|
[M:3/2] D,4 D,4 D,4 | A,,8 z4 | E,4 E,4 E,4 | B,,4 (B,,8 | F,4) G,8 | D,4 E,8 | B,,4 D,8 | %43
w: Mi- se- re-|re,|mi- se- re-|re me-|* i|mi- se-|re- re|
 (A,,4 B,,8) | F,12 |] %45
w: me- *|i.|

